src/icons/outline/metrics/metric-number.svg

<svg width="24" height="24" viewBox="0 0 24 24" fill="none" xmlns="http://www.w3.org/2000/svg">
<g clip-path="url(#clip0_4879_274)">
<path d="M6.43945 13.1553C8.02695 13.1553 9.31445 14.3955 9.31445 15.9248C9.31443 17.0249 8.63798 18.0209 7.5918 18.4619L4.35938 19.8242C3.8403 20.043 3.50488 20.5372 3.50488 21.083V21.5508H8.56152L8.71387 21.5654C9.05647 21.6332 9.31445 21.9253 9.31445 22.2754C9.31435 22.6756 8.97698 23 8.56152 23H2.75195C2.33668 22.9998 2.0001 22.6755 2 22.2754V21.083C2 19.9614 2.68919 18.9458 3.75586 18.4961L6.98926 17.1338C7.48761 16.9236 7.80955 16.4488 7.80957 15.9248C7.80957 15.2417 7.2706 14.68 6.58008 14.6123L6.43945 14.6055H4.93066C4.31097 14.6056 3.78205 14.987 3.58594 15.5215C3.44742 15.8986 3.01758 16.096 2.62598 15.9629C2.61225 15.9582 2.59823 15.9536 2.58496 15.9482C2.21973 15.8009 2.03338 15.4023 2.16699 15.0381C2.56896 13.9425 3.65347 13.1554 4.93066 13.1553H6.43945Z" fill="#3C3B44"/>
<path d="M18.8877 13.1553C20.4059 13.1554 21.6364 14.3412 21.6367 15.8037C21.6367 16.5047 21.3541 17.1425 20.8926 17.6162C21.5673 18.1335 22 18.9319 22 19.8271V20.1768C21.9998 21.7359 20.6878 22.9999 19.0693 23H17.6172C16.3399 23 15.2545 22.2129 14.8525 21.1172C14.7144 20.7399 14.9199 20.3257 15.3115 20.1924C15.7033 20.0591 16.133 20.2574 16.2715 20.6348C16.4677 21.1693 16.9974 21.5508 17.6172 21.5508H19.0693C19.8568 21.5507 20.495 20.9353 20.4951 20.1768V19.8271C20.4951 19.1158 19.934 18.5303 19.2148 18.46L19.0693 18.4531H18.3428C17.9273 18.453 17.5908 18.1278 17.5908 17.7275C17.5911 17.3275 17.9275 17.003 18.3428 17.0029H18.8877C19.5751 17.0028 20.1318 16.4659 20.1318 15.8037C20.1316 15.1831 19.6422 14.6726 19.0146 14.6113L18.8877 14.6055H17.7979C17.2295 14.6057 16.7485 14.9732 16.6006 15.4766C16.4875 15.8617 16.0717 16.0855 15.6719 15.9766C15.272 15.8676 15.0393 15.4672 15.1523 15.082C15.4786 13.9709 16.5386 13.1555 17.7979 13.1553H18.8877Z" fill="#3C3B44"/>
<path d="M12.8096 1.01465C13.1524 1.08218 13.4101 1.3744 13.4102 1.72461V9.39453H15.5605L15.7119 9.40918C16.0547 9.4768 16.3124 9.76898 16.3125 10.1191C16.3125 10.5193 15.9759 10.8435 15.5605 10.8438H12.6787L12.6582 10.8447L12.6367 10.8438H9.75098C9.33546 10.8438 8.99805 10.5194 8.99805 10.1191C8.99811 9.7189 9.3355 9.39453 9.75098 9.39453H11.9053V4.19238C11.4833 4.41915 10.997 4.54785 10.4795 4.54785H9.75293C9.33757 4.54767 9.00098 4.22342 9.00098 3.82324C9.0011 3.42316 9.33764 3.09881 9.75293 3.09863H10.4795C11.2661 3.09863 11.9036 2.48493 11.9053 1.72754V1.72461C11.9054 1.3244 12.2427 1 12.6582 1L12.8096 1.01465Z" fill="#3C3B44"/>
</g>
<defs>
<clipPath id="clip0_4879_274">
<rect width="24" height="24" fill="white"/>
</clipPath>
</defs>
</svg>

<svg xmlns="http://www.w3.org/2000/svg" width="24" height="24" fill="none" viewBox="0 0 24 24"><g fill="currentColor" clip-path="url(#a)"><path d="M6.44 13.155c1.587 0 2.874 1.24 2.874 2.77 0 1.1-.676 2.096-1.722 2.537l-3.233 1.362a1.37 1.37 0 0 0-.854 1.259v.468h5.057l.152.014c.342.068.6.36.6.71a.74.74 0 0 1-.752.725h-5.81A.74.74 0 0 1 2 22.275v-1.192c0-1.122.69-2.137 1.756-2.587l3.233-1.362c.499-.21.82-.685.82-1.21 0-.682-.538-1.244-1.229-1.312l-.14-.007H4.93c-.619 0-1.148.382-1.344.916a.76.76 0 0 1-.96.442l-.041-.015a.717.717 0 0 1-.418-.91c.402-1.095 1.486-1.883 2.764-1.883zm12.448 0c1.518 0 2.748 1.186 2.749 2.649 0 .7-.283 1.338-.744 1.812A2.78 2.78 0 0 1 22 19.827v.35C22 21.736 20.688 23 19.07 23h-1.453c-1.277 0-2.363-.787-2.765-1.883a.72.72 0 0 1 .46-.925.76.76 0 0 1 .96.443c.196.534.725.916 1.345.916h1.452c.788 0 1.426-.616 1.426-1.374v-.35c0-.711-.561-1.297-1.28-1.367l-.146-.007h-.726a.74.74 0 0 1-.752-.726c0-.4.336-.724.752-.724h.545c.687 0 1.244-.537 1.244-1.2 0-.62-.49-1.13-1.117-1.192l-.127-.006h-1.09a1.24 1.24 0 0 0-1.197.872.757.757 0 0 1-.93.5.72.72 0 0 1-.519-.895c.327-1.111 1.387-1.927 2.646-1.927zM12.81 1.015c.342.067.6.36.6.71v7.67h2.15l.152.014c.343.068.6.36.6.71 0 .4-.336.725-.752.725H9.752c-.416 0-.753-.325-.753-.725s.338-.724.753-.724h2.154V4.192a3 3 0 0 1-1.425.356h-.727A.74.74 0 0 1 9 3.823c0-.4.337-.724.752-.724h.726c.787 0 1.425-.614 1.426-1.371v-.003c0-.4.338-.725.753-.725z"/></g><defs><clipPath id="a"><path fill="currentColor" d="M0 0h24v24H0z"/></clipPath></defs></svg>
